Simply-Green-Circles/scalable/apps/khangman.svg

<svg xmlns="http://www.w3.org/2000/svg" width="48" height="48" viewBox="0 0 12.7 12.7"><path d="M6.34.07a6.29 6.29 0 0 0-6.29 6.3 6.29 6.29 0 0 0 6.3 6.28 6.29 6.29 0 0 0 6.28-6.29A6.29 6.29 0 0 0 6.34.07zm-.37.94v.49l.38.19.38.19V1.03a5.4 5.4 0 0 1 5 5.38 5.4 5.4 0 0 1-5.4 5.41 5.4 5.4 0 0 1-5.41-5.4 5.4 5.4 0 0 1 5.05-5.4zm-.39.63l-.1.01a.4.4 0 0 0-.27.27.45.45 0 0 0 0 .2.4.4 0 0 0 .1.17l.04.04.83.42.87.43c.17.06.37-.03.45-.2a.38.38 0 0 0-.09-.45 49.73 49.73 0 0 0-1.73-.87.4.4 0 0 0-.1-.02zm-.03 1.1l-.1.02a.35.35 0 0 0-.15.1.35.35 0 0 0-.1.17.37.37 0 0 0 .02.26c.03.06.07.1.12.14l1.71.86a.5.5 0 0 0 .2 0 .46.46 0 0 0 .15-.08c.05-.03.1-.1.12-.15a.4.4 0 0 0-.03-.33.44.44 0 0 0-.16-.15 274.24 274.24 0 0 1-1.67-.82.43.43 0 0 0-.11-.01zm.04 1.08h-.12a.39.39 0 0 0-.12.7 5.97 5.97 0 0 0 .55.27l-.1.2c-.1.17-.22.32-.68.88-.6.72-.8 1-1.01 1.34a2.92 2.92 0 0 0-.39.96 2.18 2.18 0 0 0 1.47 2.52c.5.19 1.13.24 1.72.16a2.6 2.6 0 0 0 1.47-.66c.37-.36.58-.82.63-1.38V8.4c-.03-.4-.17-.8-.43-1.23a8.16 8.16 0 0 0-.78-1.05l-.48-.6-.14-.17h.03a.38.38 0 0 0 .18-.1.38.38 0 0 0 0-.54l-.05-.06-.8-.4-.84-.41a.49.49 0 0 0-.11-.02zm.76 1.74v.01l.07.08c.1.14.22.29.53.65l.4.49c.54.67.83 1.2.9 1.64v.4c-.05.39-.19.65-.45.86a2 2 0 0 1-.91.38c-.54.1-1.1.05-1.56-.14a1.6 1.6 0 0 1-.53-.35 1 1 0 0 1-.21-.29c-.1-.2-.14-.4-.14-.67 0-.15 0-.2.04-.34.1-.36.33-.77.71-1.29l.48-.58.35-.42.3-.41.02-.02z" fill="#2ca02c"/></svg>

<?xml version="1.0" encoding="UTF-8" standalone="no"?>
<svg
   xmlns:dc="http://purl.org/dc/elements/1.1/"
   xmlns:cc="http://creativecommons.org/ns#"
   xmlns:rdf="http://www.w3.org/1999/02/22-rdf-syntax-ns#"
   xmlns:svg="http://www.w3.org/2000/svg"
   xmlns="http://www.w3.org/2000/svg"
   xmlns:sodipodi="http://sodipodi.sourceforge.net/DTD/sodipodi-0.dtd"
   xmlns:inkscape="http://www.inkscape.org/namespaces/inkscape"
   width="48"
   height="48"
   viewBox="0 0 12.7 12.7"
   version="1.1"
   id="svg4"
   sodipodi:docname="khangman.svg"
   inkscape:version="0.92.4 (5da689c313, 2019-01-14)">
  <metadata
     id="metadata10">
    <rdf:RDF>
      <cc:Work
         rdf:about="">
        <dc:format>image/svg+xml</dc:format>
        <dc:type
           rdf:resource="http://purl.org/dc/dcmitype/StillImage" />
        <dc:title></dc:title>
      </cc:Work>
    </rdf:RDF>
  </metadata>
  <defs
     id="defs8" />
  <sodipodi:namedview
     pagecolor="#ffffff"
     bordercolor="#666666"
     borderopacity="1"
     objecttolerance="10"
     gridtolerance="10"
     guidetolerance="10"
     inkscape:pageopacity="0"
     inkscape:pageshadow="2"
     inkscape:window-width="1087"
     inkscape:window-height="480"
     id="namedview6"
     showgrid="false"
     inkscape:zoom="4.9166667"
     inkscape:cx="2.1355932"
     inkscape:cy="24"
     inkscape:window-x="0"
     inkscape:window-y="25"
     inkscape:window-maximized="0"
     inkscape:current-layer="svg4" />
  <path
     d="M 6.34,0.07 A 6.29,6.29 0 0 0 0.05,6.37 6.29,6.29 0 0 0 6.35,12.65 6.29,6.29 0 0 0 12.63,6.36 6.29,6.29 0 0 0 6.34,0.07 Z M 5.97,1.01 V 1.5 L 6.35,1.69 6.73,1.88 V 1.03 a 5.4,5.4 0 0 1 5,5.38 5.4,5.4 0 0 1 -5.4,5.41 5.4,5.4 0 0 1 -5.41,-5.4 5.4,5.4 0 0 1 5.05,-5.4 z M 5.58,1.64 5.48,1.65 a 0.4,0.4 0 0 0 -0.27,0.27 0.45,0.45 0 0 0 0,0.2 0.4,0.4 0 0 0 0.1,0.17 L 5.35,2.33 6.18,2.75 7.05,3.18 C 7.22,3.24 7.42,3.15 7.5,2.98 A 0.38,0.38 0 0 0 7.41,2.53 49.73,49.73 0 0 0 5.68,1.66 0.4,0.4 0 0 0 5.58,1.64 Z M 5.55,2.74 5.45,2.76 A 0.35,0.35 0 0 0 5.3,2.86 0.35,0.35 0 0 0 5.2,3.03 0.37,0.37 0 0 0 5.22,3.29 c 0.03,0.06 0.07,0.1 0.12,0.14 l 1.71,0.86 a 0.5,0.5 0 0 0 0.2,0 A 0.46,0.46 0 0 0 7.4,4.21 C 7.45,4.18 7.5,4.11 7.52,4.06 A 0.4,0.4 0 0 0 7.49,3.73 0.44,0.44 0 0 0 7.33,3.58 274.24,274.24 0 0 1 5.66,2.76 0.43,0.43 0 0 0 5.55,2.75 Z M 5.59,3.82 H 5.47 A 0.39,0.39 0 0 0 5.35,4.52 5.97,5.97 0 0 0 5.9,4.79 L 5.8,4.99 C 5.7,5.16 5.58,5.31 5.12,5.87 c -0.6,0.72 -0.8,1 -1.01,1.34 a 2.92,2.92 0 0 0 -0.39,0.96 2.18,2.18 0 0 0 1.47,2.52 c 0.5,0.19 1.13,0.24 1.72,0.16 A 2.6,2.6 0 0 0 8.38,10.19 C 8.75,9.83 8.96,9.37 9.01,8.81 V 8.4 C 8.98,8 8.84,7.6 8.58,7.17 A 8.16,8.16 0 0 0 7.8,6.12 L 7.32,5.52 7.18,5.35 h 0.03 a 0.38,0.38 0 0 0 0.18,-0.1 0.38,0.38 0 0 0 0,-0.54 L 7.34,4.65 6.54,4.25 5.7,3.84 A 0.49,0.49 0 0 0 5.59,3.82 Z m 0.76,1.74 v 0.01 l 0.07,0.08 c 0.1,0.14 0.22,0.29 0.53,0.65 l 0.4,0.49 c 0.54,0.67 0.83,1.2 0.9,1.64 v 0.4 C 8.2,9.22 8.06,9.48 7.8,9.69 A 2,2 0 0 1 6.89,10.07 C 6.35,10.17 5.79,10.12 5.33,9.93 A 1.6,1.6 0 0 1 4.8,9.58 1,1 0 0 1 4.59,9.29 C 4.49,9.09 4.45,8.89 4.45,8.62 4.45,8.47 4.45,8.42 4.49,8.28 4.59,7.92 4.82,7.51 5.2,6.99 L 5.68,6.41 6.03,5.99 6.33,5.58 Z"
     id="path2"
     inkscape:connector-curvature="0"
     style="fill:#2ca02c" />
</svg>
